X: 021
T: Mrs Parker's Dance
R: march
M: 2/4
L: 1/16
Z: 2012 John Chambers <jc:trillian.mit.edu>
B: J. Anderson "Budget of Strathspeys, Reels and Country Dances" (Early 1800s) p.2 #1
F: http://imslp.org/wiki/Anderson%27s_Budget_of_Strathspeys,_Reels_and_Country_Dances_(Various)
N: Corrected rhythm of 2nd part by deleting the dot on the last note.
K: D
f2 |\
d4 (A3f) | d4 (A3f) | d4 (A3d) | ce3e3f | d4 (A3f) | d4 (A3d) | ce3e3g | (fd3) d2 :||: f2 |
af3 f3d | (gb3) b4 | a3f (gf).e.d | c2e2e2f2 | af3 f3d | (gb3) b4 | ce3 e3g | (fd3) d2 :|

%%sep 2 1 500
%%sep 1 1 500

